!!!COM: Palestrina, Giovanni Perluigi da
!!!OPR: Missa Quando lieta sperai
!!!OMD: Credo
!!!OTL: Et ascendit
**kern	**kern	**kern	**kern
*Ibass	*Ibarit	*Itenor	*Icalto
!Bassus	!Baritone	!Tenor	!Altus
*clefF4	*clefF4	*clefGv2	*clefG2
*k[]	*k[]	*k[]	*k[]
*A:aeo	*A:aeo	*A:aeo	*A:aeo
*M4/2	*M4/2	*M4/2	*M4/2
=117	=117	=117	=117
0r	0r	1A	0r
.	.	2c	.
.	.	2B	.
=118	=118	=118	=118
1r	0r	2c	0r
.	.	2d	.
1E	.	1e	.
=119	=119	=119	=119
2F	0r	2A	0r
2E	.	2.e	.
2F	.	.	.
.	.	4d	.
2G	.	[2d	.
=120	=120	=120	=120
1A	1r	2d]	1e
.	.	2c	.
2D	1A	2d	2f
[2A	.	4c	2e
.	.	4B	.
=121	=121	=121	=121
2A]	2c	2A	2f
2G	2B	2e	2g
1F	2c	1A	1a
.	2d	.	.
=122	=122	=122	=122
2.E	1e	2B	0g
.	.	1c	.
4F	.	.	.
1G	1d	.	.
.	.	2B	.
=123	=123	=123	=123
1C	1e	1c	2r
.	.	.	2e
1r	2d	1r	2f
.	2c	.	2e
=124	=124	=124	=124
0r	2d	0r	2f
.	2e	.	2g
.	4A	.	1a
.	4B	.	.
.	4c	.	.
.	4d	.	.
=125	=125	=125	=125
1r	2e	1r	2g
.	1d	.	2f
1A	.	2r	1e
.	2c#	2A	.
=126	=126	=126	=126
2G	1d	2B	2r
2F	.	2A	2a
2G	2r	2B	2g
2A	[2A	2c	2e
=127	=127	=127	=127
4D	4A]	2d	1f
4E	4G	.	.
4F	4A	2.c	.
4G	4B	.	.
4A	1c	.	2e
4B	.	4d	.
[2c	.	4e	2e
.	.	4f	.
=128	=128	=128	=128
2c]	1G	1g	1d
2B	.	.	.
2c	2r	1e	2.c
2A	2c	.	.
.	.	.	4d
=129	=129	=129	=129
2A	2c	2r	1e
2G	2B	2e	.
2A	2c	2e	1r
2D	2d	2f	.
=130	=130	=130	=130
2.A	2.c	2e	0r
.	.	4A	.
4G	4B	4B	.
2F	2A	4c	.
.	.	4d	.
2E	2G	2e	.
=131	=131	=131	=131
1F	1A	2c	2r
.	.	2d	2a
1E	1B	1e	2a
.	.	.	2g#
=132	=132	=132	=132
0r	2r	1f	2a
.	2d	.	2d
.	2d	2f	2.a
.	2c#	2e	.
.	.	.	4g
=133	=133	=133	=133
1r	2d	2d	2f
.	2A	2c#	2e
2r	2D	1d	1f
2A	2D	.	.
=134	=134	=134	=134
2A	1E	1B	1e
2G#	.	.	.
2A	1r	2c	2e
2D	.	2d	2f
=135	=135	=135	=135
2.A	2r	2d	1e
.	2A	2c	.
4G	.	.	.
2F	2A	2d	1r
2E	2G	2e	.
=136	=136	=136	=136
1F	1A	2c	2r
.	.	2d	2a
1E	1B	1e	2a
.	.	.	2g#
=137	=137	=137	=137
1D	2r	1f	2a
.	2d	.	2d
1r	2d	2f	2.a
.	2c#	2e	.
.	.	.	4g
=138	=138	=138	=138
1r	2d	2d	4f
.	.	.	8e
.	.	.	8d
.	2A	2c	2e
1D	2.d	2B	1f
.	.	2A	.
.	4c	.	.
=139	=139	=139	=139
1E	2B	2G	1e
.	2A	2c	.
1E	2G	2B	1e
.	[2c	2G	.
=140	=140	=140	=140
1F	2c]	4A	2.c
.	.	4B	.
.	1A	4c	.
.	.	4A	4c
1D	.	2d	2f
.	[2B	2d	2f
=141	=141	=141	=141
0E	2B]	2.c	0e
.	1A	.	.
.	.	8B	.
.	.	8A	.
.	.	1B	.
.	2G#	.	.
=142	=142	=142	=142
1r	0A	1c#	2r
.	.	.	1e
1A	.	1c	.
.	.	.	2f#
=143	=143	=143	=143
2B	0r	2d	1g
2.c	.	2.e	.
.	.	.	1g
4c	.	4e	.
2B	.	2d	.
=144	=144	=144	=144
2A	0r	2e	1a
2F	.	2f	.
1G	.	4e	2.g
.	.	4d	.
.	.	[2d	.
.	.	.	4f
=145	=145	=145	=145
1A	2r	2d]	1e
.	1A	2c	.
1D	.	1f	1d
.	2B	.	.
=146	=146	=146	=146
1.A	1c	1e	2r
.	.	.	1e
.	1c	2A	.
2A	.	[2c	2f#
=147	=147	=147	=147
1G	1d	4c]	1g
.	.	8B	.
.	.	8A	.
.	.	2B	.
1C	[1c	[1e	1g
=148	=148	=148	=148
2r	2c]	1e]	2a
1E	4B	.	1g
.	4A	.	.
.	2G	1r	.
2F	2A	.	4f
.	.	.	4e
=149	=149	=149	=149
1G	2B	0r	2d
.	1c	.	2e
1G	.	.	1d
.	2B	.	.
=150	=150	=150	=150
1A	2c	0r	1c
.	1A	.	.
2c	.	.	[1e
2G	2B	.	.
=151	=151	=151	=151
1A	1c	1r	2e]
.	.	.	2f#
1E	1B	2r	1g
.	.	[2B	.
=152	=152	=152	=152
1E	1G	2B]	1g
.	.	2c	.
2F#	2A	1d	1r
[2G	[2B	.	.
=153	=153	=153	=153
4G]	4B]	1d	2r
4G	4B	.	.
2F	2A	.	1a
2E	2B	1e	.
2C	2c	.	[2g
=154	=154	=154	=154
1D	2B	2.d	2g]
.	1A	.	2f
.	.	4c	.
1E	.	1B	1e
.	2G#	.	.
=155	=155	=155	=155
0AA	0A	0c#	0e
*-	*-	*-	*-
!!!CDT: 1525/^1526/-1594/2/2
!!!OCY: Italia
!!!AGN: Mass (Parody)
!!!AST: renaissance, vocal
!!!ASW: Madrigal 1548 (anon (Rore, Morales))
!!!PWK: Masses, Book 11
!!!RNB: Cadence finals: G,E
!!!YOR: Le Opere Complete, v. 28, p. 73
!!!YOO: Rome, Italy: Fratelli Scalera
!!!END: 1992//
!!!EED: John Miller
!!!YEC: Copyright 2000, John Miller
!!!YEN: United States of America
!!!YEM: Rights to all derivative electronic formats reserved.
!!!YEM: Refer to licensing agreement for further details.
!!!YEM: This file must be accompanied by the licensing agreement.
!!!YEM: A copy of the licensing agreement may be found at http://www.music-cog.ohio-state.edu/HumdrumDatabases/Palestrina/license.txt
!!!EMD: converted to Humdrum by Bret Aarden
